src/assets/outline/MusicLibrary2.svg

<svg width="24" height="24" viewBox="0 0 24 24"  xmlns="http://www.w3.org/2000/svg">
<path d="M17 22.75H7C3.35 22.75 1.25 20.65 1.25 17V13C1.25 9.4 3.17003 8.06 4.78003 7.56C5.43003 7.35 6.18 7.25 7 7.25H17C17.82 7.25 18.57 7.36001 19.23 7.57001C20.83 8.06001 22.75 9.41 22.75 13V17C22.75 20.65 20.65 22.75 17 22.75ZM7 8.75C6.34 8.75 5.73998 8.83 5.22998 9C3.55998 9.51 2.75 10.82 2.75 13V17C2.75 19.86 4.14 21.25 7 21.25H17C19.86 21.25 21.25 19.86 21.25 17V13C21.25 10.82 20.44 9.51 18.78 9C18.26 8.83 17.66 8.75 17 8.75H7Z" />
<path d="M19 9.03003C18.92 9.03003 18.85 9.01999 18.77 8.98999C18.26 8.82999 17.66 8.73999 17 8.73999H7C6.34 8.73999 5.73998 8.81999 5.22998 8.98999C4.99998 9.05999 4.75 9.02 4.56 8.88C4.37 8.74001 4.25 8.51002 4.25 8.27002V7C4.25 5.48 5.48 4.25 7 4.25H17C18.52 4.25 19.75 5.48 19.75 7V8.28003C19.75 8.52003 19.64 8.74001 19.44 8.89001C19.31 8.98001 19.16 9.03003 19 9.03003ZM7 5.75C6.31 5.75 5.75 6.31 5.75 7V7.34003C6.14 7.28003 6.56 7.25 7 7.25H17C17.44 7.25 17.86 7.28003 18.25 7.34003V7C18.25 6.31 17.69 5.75 17 5.75H7Z" />
<path d="M16 5.75H8C7.59 5.75 7.25 5.41 7.25 5V3.51001C7.25 2.26001 8.26001 1.25 9.51001 1.25H14.49C15.74 1.25 16.75 2.26001 16.75 3.51001V5C16.75 5.41 16.41 5.75 16 5.75ZM8.75 4.25H15.25V3.51001C15.25 3.09001 14.91 2.75 14.49 2.75H9.51001C9.09001 2.75 8.75 3.09001 8.75 3.51001V4.25Z" />
<path d="M9.07001 20.2101C7.93001 20.2101 7 19.2801 7 18.1401C7 17.0001 7.93001 16.0701 9.07001 16.0701C10.21 16.0701 11.14 17.0001 11.14 18.1401C11.14 19.2801 10.22 20.2101 9.07001 20.2101ZM9.07001 17.5601C8.75001 17.5601 8.5 17.8201 8.5 18.1301C8.5 18.4401 8.76001 18.7001 9.07001 18.7001C9.38001 18.7001 9.64001 18.4401 9.64001 18.1301C9.64001 17.8201 9.39001 17.5601 9.07001 17.5601Z" />
<path d="M10.3999 18.88C9.9899 18.88 9.6499 18.54 9.6499 18.13V12.8C9.6499 11.94 10.1899 11.24 11.0199 11.01L13.6699 10.29C14.5199 10.06 15.0599 10.28 15.3599 10.51C15.6599 10.74 16.0099 11.19 16.0099 12.07V17.24C16.0099 17.65 15.6699 17.99 15.2599 17.99C14.8499 17.99 14.5099 17.65 14.5099 17.24V12.07C14.5099 11.82 14.4599 11.72 14.4399 11.7C14.4199 11.69 14.2999 11.67 14.0599 11.73L11.4099 12.45C11.1799 12.51 11.1499 12.66 11.1499 12.79V18.12C11.1499 18.55 10.8099 18.88 10.3999 18.88Z" />
<path d="M13.9299 19.3199C12.7899 19.3199 11.8599 18.3899 11.8599 17.2499C11.8599 16.1099 12.7899 15.1799 13.9299 15.1799C15.0699 15.1799 15.9999 16.1099 15.9999 17.2499C15.9999 18.3899 15.0699 19.3199 13.9299 19.3199ZM13.9299 16.6799C13.6099 16.6799 13.3599 16.9399 13.3599 17.2499C13.3599 17.5599 13.6199 17.8199 13.9299 17.8199C14.2399 17.8199 14.4999 17.5599 14.4999 17.2499C14.4999 16.9399 14.2399 16.6799 13.9299 16.6799Z" />
<path d="M10.4001 15.0999C10.0701 15.0999 9.77004 14.8799 9.68004 14.5499C9.57004 14.1499 9.81007 13.7399 10.2101 13.6299L15.06 12.3099C15.46 12.1999 15.87 12.4399 15.98 12.8399C16.09 13.2399 15.8501 13.6499 15.4501 13.7599L10.6 15.0799C10.53 15.0899 10.4601 15.0999 10.4001 15.0999Z" />
</svg>

<?xml version="1.0" encoding="UTF-8"?>
<svg width="24" height="24" viewBox="0 0 24 24" xmlns="http://www.w3.org/2000/svg">
 <path d="m17 22.75h-10c-3.65 0-5.75-2.1-5.75-5.75v-4c0-3.6 1.92-4.94 3.53-5.44 0.65-0.21 1.4-0.31 2.22-0.31h10c0.82 0 1.57 0.11001 2.23 0.32001 1.6 0.49 3.52 1.84 3.52 5.43v4c0 3.65-2.1 5.75-5.75 5.75zm-10-14c-0.66 0-1.26 0.08-1.77 0.25-1.67 0.51-2.48 1.82-2.48 4v4c0 2.86 1.39 4.25 4.25 4.25h10c2.86 0 4.25-1.39 4.25-4.25v-4c0-2.18-0.81-3.49-2.47-4-0.52-0.17-1.12-0.25-1.78-0.25h-10z"/>
 <path d="m19 9.03c-0.08 0-0.15-0.01004-0.23-0.04004-0.51-0.16-1.11-0.25-1.77-0.25h-10c-0.66 0-1.26 0.08-1.77 0.25-0.23 0.07-0.47998 0.03001-0.66998-0.10999-0.19-0.13999-0.31-0.36998-0.31-0.60998v-1.27c0-1.52 1.23-2.75 2.75-2.75h10c1.52 0 2.75 1.23 2.75 2.75v1.28c0 0.24-0.11 0.45998-0.31 0.60998-0.13 0.09-0.28 0.14002-0.44 0.14002zm-12-3.28c-0.69 0-1.25 0.56-1.25 1.25v0.34003c0.39-0.06 0.81-0.09003 1.25-0.09003h10c0.44 0 0.86 0.03003 1.25 0.09003v-0.34003c0-0.69-0.56-1.25-1.25-1.25h-10z"/>
 <path d="m16 5.75h-8c-0.41 0-0.75-0.34-0.75-0.75v-1.49c0-1.25 1.01-2.26 2.26-2.26h4.98c1.25 0 2.26 1.01 2.26 2.26v1.49c0 0.41-0.34 0.75-0.75 0.75zm-7.25-1.5h6.5v-0.73999c0-0.42-0.34-0.76001-0.76-0.76001h-4.98c-0.42 0-0.76001 0.34001-0.76001 0.76001v0.73999z"/>
 <path d="m9.07 20.21c-1.14 0-2.07-0.93-2.07-2.07s0.93001-2.07 2.07-2.07c1.14 0 2.07 0.93 2.07 2.07s-0.92 2.07-2.07 2.07zm0-2.65c-0.32 0-0.57001 0.26-0.57001 0.57s0.26001 0.57 0.57001 0.57 0.57-0.26 0.57-0.57-0.25-0.57-0.57-0.57z"/>
 <path d="m10.4 18.88c-0.41 0-0.75-0.34-0.75-0.75v-5.33c0-0.86 0.54-1.56 1.37-1.79l2.65-0.72c0.85-0.23 1.39-0.01 1.69 0.22s0.65 0.68 0.65 1.56v5.17c0 0.41-0.34 0.75-0.75 0.75s-0.75-0.34-0.75-0.75v-5.17c0-0.25-0.05-0.35-0.07-0.37-0.02-0.01-0.14-0.03-0.38 0.03l-2.65 0.72c-0.23 0.06-0.26 0.21-0.26 0.34v5.33c0 0.43-0.34 0.76-0.75 0.76z"/>
 <path d="m13.93 19.32c-1.14 0-2.07-0.93-2.07-2.07s0.93-2.07 2.07-2.07 2.07 0.93 2.07 2.07-0.93 2.07-2.07 2.07zm0-2.64c-0.32 0-0.57 0.26-0.57 0.57s0.26 0.57 0.57 0.57 0.57-0.26 0.57-0.57-0.26-0.57-0.57-0.57z"/>
 <path d="m10.4 15.1c-0.33 0-0.63006-0.22-0.72006-0.55-0.11-0.4 0.13003-0.81 0.53006-0.92l4.8499-1.32c0.4-0.11 0.81 0.13 0.92 0.53s-0.1299 0.81-0.5299 0.92l-4.8501 1.32c-0.07 0.01-0.1399 0.02-0.1999 0.02z"/>
</svg>
